X: 19569
T: James Kelly's
R: reel
M: 4/4
K: Edorian
|:B2 EB DEBE|~E2 BE GABG|GAFE DEFA|defd eegf|
eBBA ABBd|BAGB DEGE|EAFE DEFA|1 defd eedc:|2 defd e2 B/c/d||
|:~e3 B ggfg|eBde- egaf|d ~A3 effe|dBAF DFB/c/d|
~e3 B ggfg|eBde- egaf|d ~A3 effe|1 dBAF e3 g:|2 dBAF e3 d||

